X: 24959
T: Maid In The Meadow, The
R: jig
M: 6/8
K: Amajor
|:dfd cec|BAB cAF|EFA ~B3|cec BAF|
dfd cec|BAB cAF|EFA BAB|1 cAG ABc:|2 cAG A2 G||
|:Ace a3|fef aec|Ace a2 f|ecB BAF|
Ace a3|fef aec|ABc BAB|1 cAG A3:|2 cAG ABc||

